X: 504
P: Longways for as many as will
M: 6/4
L: 1/4
K: Dm
f/g/ |\
(a<f)a (g<e)g | f>ed ^c2d | e3 A2f/g/ |\
(a<f)a (g<e)g | f>ed ^c>=B^c | d3 D2 |]
E |\

